material/.icons/material/shield-star-outline.svg

<svg xmlns="http://www.w3.org/2000/svg" viewBox="0 0 24 24"><path d="M21 11c0 5.55-3.84 10.74-9 12-5.16-1.26-9-6.45-9-12V5l9-4 9 4v6m-9 10c3.75-1 7-5.46 7-9.78V6.3l-7-3.12L5 6.3v4.92C5 15.54 8.25 20 12 21m3.05-5l-3.08-1.85L8.9 16l.81-3.5L7 10.16l3.58-.31 1.39-3.3 1.4 3.29 3.58.31-2.72 2.35.82 3.5"/></svg>

<?xml version="1.0" encoding="UTF-8"?><!DOCTYPE svg PUBLIC "-//W3C//DTD SVG 1.1//EN" "http://www.w3.org/Graphics/SVG/1.1/DTD/svg11.dtd"><svg xmlns="http://www.w3.org/2000/svg" xmlns:xlink="http://www.w3.org/1999/xlink" version="1.1" id="mdi-shield-star-outline" width="24" height="24" viewBox="0 0 24 24"><path d="M21 11C21 16.55 17.16 21.74 12 23C6.84 21.74 3 16.55 3 11V5L12 1L21 5V11M12 21C15.75 20 19 15.54 19 11.22V6.3L12 3.18L5 6.3V11.22C5 15.54 8.25 20 12 21M15.05 16L11.97 14.15L8.9 16L9.71 12.5L7 10.16L10.58 9.85L11.97 6.55L13.37 9.84L16.95 10.15L14.23 12.5L15.05 16" /></svg>
